delivery_fedex/static/description/icon.svg

<svg xmlns="http://www.w3.org/2000/svg" xmlns:xlink="http://www.w3.org/1999/xlink" width="70" height="70" viewBox="0 0 70 70">
    <defs>
        <path id="icon-a" d="M4,5.35309892e-14 C36.4160122,9.87060235e-15 58.0836068,-3.97961823e-14 65,5.07020818e-14 C69,6.733808e-14 70,1 70,5 C70,43.0488877 70,62.4235458 70,65 C70,69 69,70 65,70 C61,70 9,70 4,70 C1,70 7.10542736e-15,69 7.10542736e-15,65 C7.25721566e-15,62.4676575 3.83358709e-14,41.8005206 3.60818146e-14,5 C-1.13686838e-13,1 1,5.75716207e-14 4,5.35309892e-14 Z"/>
        <linearGradient id="icon-c" x1="100%" x2="0%" y1="0%" y2="100%">
            <stop offset="0%" stop-color="#94B6C8"/>
            <stop offset="100%" stop-color="#6A9EBA"/>
        </linearGradient>
    </defs>
    <g fill="none" fill-rule="evenodd">
        <mask id="icon-b" fill="#fff">
            <use xlink:href="#icon-a"/>
        </mask>
        <g mask="url(#icon-b)">
            <rect width="70" height="70" fill="url(#icon-c)"/>
            <path fill="#FFF" fill-opacity=".383" d="M4,1.8 L65,1.8 C67.6666667,1.8 69.3333333,1.13333333 70,-0.2 C70,2.46666667 70,3.46666667 70,2.8 L1.10547097e-14,2.8 C-1.65952376e-14,3.46666667 -2.9161925e-14,2.46666667 -2.66453526e-14,-0.2 C0.666666667,1.13333333 2,1.8 4,1.8 Z" transform="matrix(1 0 0 -1 0 2.8)"/>
            <path fill="#393939" d="M4,43 C2,43 0,42 0,39 L2.32813366e-16,13.176135 L11,0 L19.0516972,0.243990824 L17,6 L24,6 L28,9 L36,0 L48,0 L45,5.85144476 L51.7663003,5.85144476 L60,15 L57,18 L60,18 L60,22 L38.9189189,43 L4,43 Z" opacity=".324" transform="translate(0 26)"/>
            <path fill="#000" fill-opacity=".383" d="M4,4 L65,4 C67.6666667,4 69.3333333,3 70,1 C70,3.66666667 70,5 70,5 L1.77635684e-15,5 C1.77635684e-15,5 1.77635684e-15,3.66666667 1.77635684e-15,1 C0.666666667,3 2,4 4,4 Z" transform="translate(0 65)"/>
            <path fill="#000" fill-rule="nonzero" d="M35.6614679,28 L35.6614679,33.9231897 L35.6244657,33.9231897 C34.8854218,33.0610196 33.9617001,32.7605459 32.8906363,32.7605459 C30.695839,32.7605459 29.0424073,34.276111 28.4620394,36.278254 C27.8,34.0717347 26.0928984,32.7192646 23.5620811,32.7192646 C21.506292,32.7192646 19.8835288,33.655538 19.0358117,35.1815926 L19.0358117,33.2853598 L14.7872254,33.2853598 L14.7872254,31.2263704 L19.4241681,31.2263704 L19.4241681,28.0006767 L11,28.0006767 L11,42.4731559 L14.7872254,42.4731559 L14.7872254,36.3899165 L18.5621168,36.3899165 C18.4458378,36.8577088 18.3877157,37.3384382 18.3891065,37.8208888 C18.3891065,40.8384841 20.6609084,42.9590571 23.5614144,42.9590571 C25.9995595,42.9590571 27.6076552,41.7960749 28.4573725,39.6788856 L25.2115126,39.6788856 C24.7728198,40.3160388 24.4394666,40.5041732 23.5617477,40.5041732 C22.5443538,40.5041732 21.6663016,39.6027521 21.6663016,38.535529 L28.2753616,38.535529 C28.5620454,40.9328897 30.4021549,43 32.9276385,43 C34.0170367,43 35.0144294,42.4562373 35.6241324,41.5375592 L35.6608012,41.5375592 L35.6608012,42.4751861 L39,42.4751861 L39,28.0006767 L35.6614679,28.0006767 L35.6614679,28 Z M21.7716412,36.4332281 C21.9826537,35.5135349 22.6850289,34.9125874 23.5617477,34.9125874 C24.5271385,34.9125874 25.1938449,35.4949244 25.3688553,36.4332281 L21.7716412,36.4332281 Z M33.635014,40.270697 C32.4046074,40.270697 31.6398952,39.1070381 31.6398952,37.8916084 C31.6398952,36.5922626 32.3052682,35.3440108 33.635014,35.3440108 C35.0147628,35.3440108 35.5644622,36.5929393 35.5644622,37.8916084 C35.5644622,39.1226032 34.9824275,40.270697 33.635014,40.270697 Z M56.0133546,43 L54.0032656,40.6689734 L52.010812,43 L47.8183505,43 L51.9158525,38.2397541 L47.8183505,33.4781053 L52.1417205,33.4781053 L54.1721579,35.7912468 L56.1259494,33.4781053 L60.2980624,33.4781053 L56.2209089,38.2197648 L60.354699,43 L56.0133546,43 Z M39.7678206,43 L39.7678206,28 L47.8183505,28 L47.8183505,31.3434643 L43.1778837,31.3434643 L43.1778837,33.4781053 L47.8183505,33.4781053 L47.8183505,36.6953218 L43.1778837,36.6953218 L43.1778837,39.6481191 L47.8183505,39.6481191 L47.8183505,43 L39.7678206,43 Z M52.808,46.508 L51.524,46.508 L51.524,45.716 L55.034,45.716 L55.034,46.508 L53.75,46.508 L53.75,50 L52.808,50 L52.808,46.508 Z M55.526,45.716 L56.852,45.716 L57.854,48.662 L57.866,48.662 L58.814,45.716 L60.14,45.716 L60.14,50 L59.258,50 L59.258,46.964 L59.246,46.964 L58.196,50 L57.47,50 L56.42,46.994 L56.408,46.994 L56.408,50 L55.526,50 L55.526,45.716 Z" opacity=".3"/>
            <path fill="#FFF" fill-rule="nonzero" d="M35.6614679,26 L35.6614679,31.9231897 L35.6244657,31.9231897 C34.8854218,31.0610196 33.9617001,30.7605459 32.8906363,30.7605459 C30.695839,30.7605459 29.0424073,32.276111 28.4620394,34.278254 C27.8,32.0717347 26.0928984,30.7192646 23.5620811,30.7192646 C21.506292,30.7192646 19.8835288,31.655538 19.0358117,33.1815926 L19.0358117,31.2853598 L14.7872254,31.2853598 L14.7872254,29.2263704 L19.4241681,29.2263704 L19.4241681,26.0006767 L11,26.0006767 L11,40.4731559 L14.7872254,40.4731559 L14.7872254,34.3899165 L18.5621168,34.3899165 C18.4458378,34.8577088 18.3877157,35.3384382 18.3891065,35.8208888 C18.3891065,38.8384841 20.6609084,40.9590571 23.5614144,40.9590571 C25.9995595,40.9590571 27.6076552,39.7960749 28.4573725,37.6788856 L25.2115126,37.6788856 C24.7728198,38.3160388 24.4394666,38.5041732 23.5617477,38.5041732 C22.5443538,38.5041732 21.6663016,37.6027521 21.6663016,36.535529 L28.2753616,36.535529 C28.5620454,38.9328897 30.4021549,41 32.9276385,41 C34.0170367,41 35.0144294,40.4562373 35.6241324,39.5375592 L35.6608012,39.5375592 L35.6608012,40.4751861 L39,40.4751861 L39,26.0006767 L35.6614679,26.0006767 L35.6614679,26 Z M21.7716412,34.4332281 C21.9826537,33.5135349 22.6850289,32.9125874 23.5617477,32.9125874 C24.5271385,32.9125874 25.1938449,33.4949244 25.3688553,34.4332281 L21.7716412,34.4332281 Z M33.635014,38.270697 C32.4046074,38.270697 31.6398952,37.1070381 31.6398952,35.8916084 C31.6398952,34.5922626 32.3052682,33.3440108 33.635014,33.3440108 C35.0147628,33.3440108 35.5644622,34.5929393 35.5644622,35.8916084 C35.5644622,37.1226032 34.9824275,38.270697 33.635014,38.270697 Z M56.0133546,41 L54.0032656,38.6689734 L52.010812,41 L47.8183505,41 L51.9158525,36.2397541 L47.8183505,31.4781053 L52.1417205,31.4781053 L54.1721579,33.7912468 L56.1259494,31.4781053 L60.2980624,31.4781053 L56.2209089,36.2197648 L60.354699,41 L56.0133546,41 Z M39.7678206,41 L39.7678206,26 L47.8183505,26 L47.8183505,29.3434643 L43.1778837,29.3434643 L43.1778837,31.4781053 L47.8183505,31.4781053 L47.8183505,34.6953218 L43.1778837,34.6953218 L43.1778837,37.6481191 L47.8183505,37.6481191 L47.8183505,41 L39.7678206,41 Z M52.808,44.508 L51.524,44.508 L51.524,43.716 L55.034,43.716 L55.034,44.508 L53.75,44.508 L53.75,48 L52.808,48 L52.808,44.508 Z M55.526,43.716 L56.852,43.716 L57.854,46.662 L57.866,46.662 L58.814,43.716 L60.14,43.716 L60.14,48 L59.258,48 L59.258,44.964 L59.246,44.964 L58.196,48 L57.47,48 L56.42,44.994 L56.408,44.994 L56.408,48 L55.526,48 L55.526,43.716 Z"/>
        </g>
    </g>
</svg>

<svg xmlns="http://www.w3.org/2000/svg" xmlns:xlink="http://www.w3.org/1999/xlink" width="70" height="70"><defs><path id="a" d="M4 0h61c4 0 5 1 5 5v60c0 4-1 5-5 5H4c-3 0-4-1-4-5V5c0-4 1-5 4-5z"/><linearGradient id="c" x1="100%" x2="0%" y1="0%" y2="100%"><stop offset="0%" stop-color="#DA956B"/><stop offset="100%" stop-color="#CC7039"/></linearGradient></defs><g fill="none" fill-rule="evenodd"><mask id="b" fill="#fff"><use xlink:href="#a"/></mask><g mask="url(#b)"><path fill="url(#c)" d="M0 0H70V70H0z"/><path fill="#FFF" fill-opacity=".383" d="M4 1h61c2.667 0 4.333.667 5 2V0H0v3c.667-1.333 2-2 4-2z"/><path fill="#393939" d="M4 69c-2 0-4-1-4-4V39.176L11 26l8.052.244L17 32h7l4 3 8-9h12l-3 5.851h6.766L60 41l-3 3h3v4L38.919 69H4z" opacity=".324"/><path fill="#000" fill-opacity=".383" d="M4 69h61c2.667 0 4.333-1 5-3v4H0v-4c.667 2 2 3 4 3z"/><path fill="#000" fill-rule="nonzero" d="M35.661 28v5.923h-.037c-.739-.862-1.662-1.162-2.733-1.162-2.195 0-3.849 1.515-4.429 3.517-.662-2.206-2.37-3.559-4.9-3.559-2.056 0-3.678.937-4.526 2.463v-1.897h-4.249v-2.059h4.637v-3.225H11v14.472h3.787V36.39h3.775a5.863 5.863 0 0 0-.173 1.43c0 3.018 2.272 5.14 5.172 5.14 2.439 0 4.047-1.164 4.896-3.281h-3.245c-.44.637-.773.825-1.65.825-1.018 0-1.896-.901-1.896-1.968h6.61C28.561 40.933 30.401 43 32.927 43c1.089 0 2.086-.544 2.696-1.462h.037v.937H39V28.001h-3.339V28zm-13.89 8.433c.212-.92.914-1.52 1.79-1.52.966 0 1.633.582 1.808 1.52h-3.597zm11.864 3.838c-1.23 0-1.995-1.164-1.995-2.38 0-1.299.665-2.547 1.995-2.547 1.38 0 1.93 1.249 1.93 2.548 0 1.23-.583 2.379-1.93 2.379zM56.013 43l-2.01-2.331L52.011 43h-4.193l4.098-4.76-4.098-4.762h4.324l2.03 2.313 1.954-2.313h4.172l-4.077 4.742L60.355 43h-4.342zm-16.245 0V28h8.05v3.343h-4.64v2.135h4.64v3.217h-4.64v2.953h4.64V43h-8.05zm13.04 3.508h-1.284v-.792h3.51v.792H53.75V50h-.942v-3.492zm2.718-.792h1.326l1.002 2.946h.012l.948-2.946h1.326V50h-.882v-3.036h-.012L58.196 50h-.726l-1.05-3.006h-.012V50h-.882v-4.284z" opacity=".3"/><path fill="#FFF" fill-rule="nonzero" d="M35.661 26v5.923h-.037c-.739-.862-1.662-1.162-2.733-1.162-2.195 0-3.849 1.515-4.429 3.517-.662-2.206-2.37-3.559-4.9-3.559-2.056 0-3.678.937-4.526 2.463v-1.897h-4.249v-2.059h4.637v-3.225H11v14.472h3.787V34.39h3.775a5.863 5.863 0 0 0-.173 1.43c0 3.018 2.272 5.14 5.172 5.14 2.439 0 4.047-1.164 4.896-3.281h-3.245c-.44.637-.773.825-1.65.825-1.018 0-1.896-.901-1.896-1.968h6.61C28.561 38.933 30.401 41 32.927 41c1.089 0 2.086-.544 2.696-1.462h.037v.937H39V26.001h-3.339V26zm-13.89 8.433c.212-.92.914-1.52 1.79-1.52.966 0 1.633.582 1.808 1.52h-3.597zm11.864 3.838c-1.23 0-1.995-1.164-1.995-2.38 0-1.299.665-2.547 1.995-2.547 1.38 0 1.93 1.249 1.93 2.548 0 1.23-.583 2.379-1.93 2.379zM56.013 41l-2.01-2.331L52.011 41h-4.193l4.098-4.76-4.098-4.762h4.324l2.03 2.313 1.954-2.313h4.172l-4.077 4.742L60.355 41h-4.342zm-16.245 0V26h8.05v3.343h-4.64v2.135h4.64v3.217h-4.64v2.953h4.64V41h-8.05zm13.04 3.508h-1.284v-.792h3.51v.792H53.75V48h-.942v-3.492zm2.718-.792h1.326l1.002 2.946h.012l.948-2.946h1.326V48h-.882v-3.036h-.012L58.196 48h-.726l-1.05-3.006h-.012V48h-.882v-4.284z"/></g></g></svg>
